src/images/icons/militant.svg

<?xml version="1.0" encoding="UTF-8"?>
<svg version="1.1" viewBox="0 0 57 57" xmlns="http://www.w3.org/2000/svg"><path d="m57 0h-8.837l-29.992 29.992-4.076-4.076-1.345-4.034c-0.22-0.663-0.857-1.065-1.55-0.98s-1.214 0.63-1.268 1.327l-0.572 7.438 5.982 5.982-10.35 10.351h-2.718c-1.254 0-2.274 1.02-2.274 2.274v6.452c0 1.254 1.02 2.274 2.274 2.274h6.452c1.254 0 2.274-1.02 2.274-2.274v-3.421l10-10 6.021 6.021 6.866-1.145c0.685-0.113 1.182-0.677 1.21-1.37s-0.422-1.295-1.096-1.464l-3.297-0.824-4.043-4.043 30.339-29.991v-8.489zm-48 54.726c0 0.151-0.123 0.274-0.274 0.274h-6.452c-0.151 0-0.274-0.123-0.274-0.274v-6.452c0-0.151 0.123-0.274 0.274-0.274h6.452c0.151 0 0.274 0.123 0.274 0.274v6.452zm2-6.249v-0.203c0-1.254-1.02-2.274-2.274-2.274h-0.906l8.938-8.938 2.828 2.828-8.586 8.587zm19.942-3.832-3.235 0.54-16.281-16.281 0.292-3.796 0.63 1.89 17.334 17.334 1.26 0.313zm-5.695-7.579-5.661-5.661 29.405-29.405h4.243l-29.405 29.406c-0.391 0.391-0.391 1.023 0 1.414 0.195 0.195 0.451 0.293 0.707 0.293s0.512-0.098 0.707-0.293l29.757-29.758v4.592l-29.753 29.412z" fill="currentColor"/></svg>

<?xml version="1.0" encoding="iso-8859-1"?>
<!-- Generator: Adobe Illustrator 18.0.0, SVG Export Plug-In . SVG Version: 6.00 Build 0)  -->
<!DOCTYPE svg PUBLIC "-//W3C//DTD SVG 1.1//EN" "http://www.w3.org/Graphics/SVG/1.1/DTD/svg11.dtd">
<svg version="1.1" id="Capa_1" xmlns="http://www.w3.org/2000/svg" xmlns:xlink="http://www.w3.org/1999/xlink" x="0px" y="0px"
	 viewBox="0 0 57 57" style="enable-background:new 0 0 57 57;" xml:space="preserve">
<path fill="currentColor" d="M57,0h-8.837L18.171,29.992l-4.076-4.076l-1.345-4.034c-0.22-0.663-0.857-1.065-1.55-0.98
	c-0.693,0.085-1.214,0.63-1.268,1.327l-0.572,7.438l5.982,5.982L4.992,46H2.274C1.02,46,0,47.02,0,48.274v6.452
	C0,55.98,1.02,57,2.274,57h6.452C9.98,57,11,55.98,11,54.726v-3.421l10-10l6.021,6.021l6.866-1.145
	c0.685-0.113,1.182-0.677,1.21-1.37c0.028-0.693-0.422-1.295-1.096-1.464l-3.297-0.824l-4.043-4.043L57,8.489V0z M9,54.726
	C9,54.877,8.877,55,8.726,55H2.274C2.123,55,2,54.877,2,54.726v-6.452C2,48.123,2.123,48,2.274,48h0.718h5.734
	C8.877,48,9,48.123,9,48.274v5.031V54.726z M11,48.477v-0.203C11,47.02,9.98,46,8.726,46H7.82l8.938-8.938l1.417,1.417l1.411,1.411
	L11,48.477z M30.942,44.645l-3.235,0.54l-5.293-5.293l0,0l-2.833-2.833l-8.155-8.155l0.292-3.796l0.63,1.89l4.41,4.41l0,0
	l4.225,4.225l8.699,8.699L30.942,44.645z M25.247,37.066l-2.822-2.822l-2.839-2.839L48.991,2h4.243L23.829,31.406
	c-0.391,0.391-0.391,1.023,0,1.414c0.195,0.195,0.451,0.293,0.707,0.293s0.512-0.098,0.707-0.293L55,3.062v4.592L25.247,37.066z"/>
</svg>
